src/assets/bisq.svg

<?xml version="1.0" encoding="UTF-8" standalone="no"?>
<svg width="246px" height="85px" viewBox="0 0 246 85" version="1.1" xmlns="http://www.w3.org/2000/svg" xmlns:xlink="http://www.w3.org/1999/xlink">
    <!-- Generator: Sketch 50.2 (55047) - http://www.bohemiancoding.com/sketch BISQ -->
    <title>bisq_logo_green</title>
    <desc>Created with Sketch.</desc>
    <defs></defs>
    <g id="bisq_logo_green" stroke="none" stroke-width="1" fill="none" fill-rule="evenodd">
        <g id="Group-3-Copy" transform="translate(88.000000, 2.000000)" fill="#25B135" fill-rule="nonzero">
            <g id="Group-2">
                <rect id="Rectangle-path" x="52.9067358" y="16.9949749" width="12.6943005" height="47.6984925"></rect>
                <path d="M92.1806975,35.7107637 L87.5413226,34.6952465 C84.5143473,34.0864822 82.9019477,32.6642122 82.9019477,30.630448 C82.9019477,28.5966838 85.3219021,26.9724023 88.5494111,26.9724023 C91.1559933,26.644834 93.6772918,28.0380255 94.8038955,30.4284365 L103.882112,24.3326036 C100.680293,19.1316165 95.0283057,15.9773269 88.9531885,16.000995 C84.7990548,15.9603927 80.7264894,17.1632324 77.2517745,19.4570292 C73.7476881,21.9372287 71.5859574,25.9163262 71.4010675,30.226425 C71.2005337,37.5425165 76.0404423,43.029585 84.714881,45.4673722 C86.1276502,45.8732151 87.7418564,46.2799679 89.5574996,46.6876307 C93.5925634,47.5065962 94.1968745,48.9234064 94.1968745,50.3456765 C94.1968745,52.988205 91.7769202,54.6124865 88.1456337,54.410475 C84.1686222,54.480577 80.4948807,52.2770068 78.6609304,48.721395 L71,55.4232623 C74.2428315,61.6848139 80.7356565,65.5463398 87.7445663,65.3818823 C97.4270934,65.5838938 105.497221,58.8792965 105.697755,50.5476879 C105.686915,43.0241253 101.05838,37.7417981 92.1806975,35.7107637 Z" id="Shape"></path>
                <path d="M24.5785755,16.2586058 C20.0867623,16.2392904 15.7250287,17.7650176 12.2255503,20.5796738 L12.2255503,0 L0.0772102062,0 L0.0772102062,38.0740553 C-0.0257367354,39.1691895 -0.0257367354,40.2715584 0.0772102062,41.3666925 L0.0772102062,41.9831981 C0.141606679,48.5232335 2.72175286,54.7876492 7.2826806,59.4775796 C11.1579139,63.2186321 16.1428623,65.6021495 21.4889362,66.2701989 L24.5785755,66.2701989 C31.0467211,66.3333165 37.2725652,63.8136037 41.8744705,59.2702347 C46.6134407,54.4461666 49.2103942,47.9187464 49.0799409,41.1593476 C49.113757,34.4178405 46.5308995,27.9258506 41.8744705,23.0484606 C37.1762355,18.6796541 30.9956948,16.2533574 24.5785755,16.2586058 Z M24.7832607,55.153747 C24.0907164,55.1981947 23.3955617,55.1290884 22.7253452,54.9491667 L22.3132089,54.9491667 C22.0817961,54.9803559 21.8489644,54.9027851 21.6825573,54.7390572 C16.7086255,53.7187863 12.9156928,49.6797876 12.2117202,44.6538006 C11.9609529,43.5032846 11.8229222,42.3310876 11.7995839,41.1538184 C11.6077257,37.6172003 12.8590981,34.1540127 15.2676028,31.5560356 C17.6761076,28.9580585 21.0358049,27.4474326 24.5785755,27.3695286 C33.8447275,27.3695286 37.139052,34.5713086 37.139052,41.1593476 C37.139052,47.951967 34.0494126,54.9491667 24.7860267,55.153747 L24.7832607,55.153747 Z" id="Shape"></path>
                <path d="M157.084629,40.2134289 C157.020131,33.6935232 154.43592,27.4483889 149.867806,22.7728937 C145.986468,19.0433558 140.993665,16.6671747 135.639169,16.0011814 L132.544662,16.0011814 C126.066724,15.9375257 119.831126,18.4484685 115.221518,22.9768443 C110.475081,27.7860643 107.874036,34.2933936 108.004695,41.0319875 C107.970826,47.7527449 110.557753,54.2247529 115.221518,59.0871308 C119.831126,63.6155065 126.066724,66.1264493 132.544662,66.0627936 C137.043552,66.0820496 141.412157,64.5610184 144.917149,61.7550255 L144.917149,82.2713568 L157.084629,82.2713568 L157.084629,40.2134289 Z M132.131876,54.5891925 C122.851126,54.5891925 119.551611,47.409579 119.551611,40.8418174 C119.551611,34.2740557 122.851126,27.0944422 131.924098,27.0944422 C132.617734,27.0501313 133.313984,27.1190249 133.985256,27.2983929 L134.398042,27.2983929 C134.62435,27.2702289 134.851349,27.3451675 135.015835,27.5023435 C140.878627,28.8150269 145.011156,34.0400653 144.914379,40.0177465 L144.914379,40.8445734 C145.179686,44.3858228 143.953597,47.8774656 141.529483,50.4840383 C139.105369,53.0906111 135.701333,54.5775953 132.131876,54.5891925 Z" id="Shape"></path>
            </g>
        </g>
        <path d="M62.5608336,18.188908 C65.1717172,23.8660536 65.726235,25.0385385 67.7281942,30.8117984 C68.8776612,34.4388409 66.5752334,39.8109082 57.0825229,35.2444879 C50.3219801,32.0218998 45.4306313,29.7386897 49.4590064,24.3666223 C51.4221958,21.7598842 53.6448268,19.3321537 56.0972655,17.1157992 C58.7070707,14.8364654 60.3232323,13.3999401 62.5608336,18.188908 Z M60.3099842,54.5520286 C65.2817274,49.6626759 72.1895383,55.1325928 67.3643101,61.6957779 C57.6424244,74.9861618 40.6701845,80.2860724 25.4623094,74.9458778 C10.2544344,69.6056833 -0.00268709882,55.004203 0.000328179635,38.3010702 C-0.0379988635,28.2940622 3.28138,19.9437454 9.62375417,12.4219687 C15.7287246,5.59064349 24.8172744,0.116885638 33.7809966,0 C46.3812889,0 52.0107218,11.0222204 47.5729445,17.1686415 C42.6142248,24.0028926 36.8480445,23.4472073 32.560038,20.5163064 C32.560038,20.5163064 26.6603663,16.3317253 24.9184654,14.9357355 C22.2356124,12.8451391 19.2857766,12.8451391 18.2145889,16.192804 C16.3391966,22.1901388 15.4015004,25.957956 13.9265825,31.9552908 C13.2404232,34.9727506 12.8811217,38.0606851 12.8553948,41.1613691 C12.8861913,46.8693634 15.400362,52.255484 19.6927628,55.8090971 C22.6566387,58.5929695 25.8401722,61.1125918 29.2097277,63.341343 C31.9226976,65.1922618 35.0828024,66.2082179 38.3262183,66.2722439 L38.5932012,66.2722439 C41.8366172,66.2082179 44.9967219,65.1922618 47.7096918,63.341343 C52.0915221,60.7040781 56.3008192,57.7678894 60.3099842,54.5520286 Z M24.8619208,47.6404135 C23.0737929,46.9853919 19.025911,43.452727 20.2151029,40.8326406 C20.6925157,39.392229 24.1472483,39.0011239 25.2178104,39.0011239 C31.5341264,38.8707555 31.7713861,50.1301315 24.8619208,47.6404135 Z M35.9709188,59.6364846 C35.1641481,58.9132151 33.6845241,57.4666762 32.3388175,56.2602511 C31.9661523,55.8557439 31.8944367,55.2923324 32.1558666,54.8229554 C32.4172966,54.3535784 32.9627461,54.0664377 33.5473404,54.0904427 C35.9211094,53.9698524 38.3005905,53.9698524 40.6743594,54.0904427 C41.2250988,54.1309633 41.7017225,54.4497615 41.9019064,54.9115093 C42.1020903,55.3732572 41.9907107,55.8969375 41.6150475,56.2602511 C40.2726072,57.4666762 38.7929832,58.9132151 38.1201299,59.6364846 C37.8281825,59.8781281 37.4427521,60.0083613 37.0455244,59.9995834 C36.6482966,60.0083613 36.2628662,59.8781281 35.9709188,59.6364846 Z M50.1380792,47.6404135 C43.2286139,50.1301315 43.4658736,38.8707555 49.7821896,39.0011239 C50.8527517,39.0011239 54.1888545,39.392229 54.7848971,40.8326406 C55.974089,43.452727 51.9262071,46.9853919 50.1380792,47.6404135 Z" id="Combined-Shape" fill="#25B135" fill-rule="nonzero"></path>
    </g>
</svg>

<?xml version="1.0" encoding="UTF-8" standalone="no"?>
<svg
   xmlns:dc="http://purl.org/dc/elements/1.1/"
   xmlns:cc="http://creativecommons.org/ns#"
   xmlns:rdf="http://www.w3.org/1999/02/22-rdf-syntax-ns#"
   xmlns:svg="http://www.w3.org/2000/svg"
   xmlns="http://www.w3.org/2000/svg"
   xmlns:sodipodi="http://sodipodi.sourceforge.net/DTD/sodipodi-0.dtd"
   xmlns:inkscape="http://www.inkscape.org/namespaces/inkscape"
   width="135"
   height="25"
   viewBox="0 0 135 25"
   version="1.1"
   id="svg18"
   sodipodi:docname="bisq.svg"
   inkscape:version="0.92.2 (5c3e80d, 2017-08-06)">
  <metadata
     id="metadata22">
    <rdf:RDF>
      <cc:Work
         rdf:about="">
        <dc:format>image/svg+xml</dc:format>
        <dc:type
           rdf:resource="http://purl.org/dc/dcmitype/StillImage" />
        <dc:title>bisq_logo_green</dc:title>
      </cc:Work>
    </rdf:RDF>
  </metadata>
  <sodipodi:namedview
     pagecolor="#ffffff"
     bordercolor="#666666"
     borderopacity="1"
     objecttolerance="10"
     gridtolerance="10"
     guidetolerance="10"
     inkscape:pageopacity="0"
     inkscape:pageshadow="2"
     inkscape:window-width="1366"
     inkscape:window-height="705"
     id="namedview20"
     showgrid="false"
     inkscape:zoom="1.2235772"
     inkscape:cx="123"
     inkscape:cy="42.5"
     inkscape:window-x="-8"
     inkscape:window-y="-8"
     inkscape:window-maximized="1"
     inkscape:current-layer="svg18" />
  <!-- Generator: Sketch 50.2 (55047) - http://www.bohemiancoding.com/sketch BISQ -->
  <title
     id="title2">bisq_logo_green</title>
  <desc
     id="desc4">Created with Sketch.</desc>
  <defs
     id="defs6" />
  <g
     id="bisq_logo_green"
     style="fill:none;fill-rule:evenodd;stroke:none;stroke-width:3.37085438"
     transform="matrix(0.2966607,0,0,0.2966607,31.146511,1.2121505e-7)">
    <g
       id="Group-3-Copy"
       transform="translate(88,2)"
       style="fill:#25b135;fill-rule:nonzero;stroke-width:3.37085438">
      <g
         id="Group-2"
         style="stroke-width:3.37085438">
        <rect
           id="Rectangle-path"
           x="52.906734"
           y="16.994974"
           width="12.694301"
           height="47.698494"
           style="stroke-width:3.37085438" />
        <path
           d="m 92.180697,35.710764 -4.639374,-1.015517 c -3.026976,-0.608765 -4.639375,-2.031035 -4.639375,-4.064799 0,-2.033764 2.419954,-3.658046 5.647463,-3.658046 2.606582,-0.327568 5.127881,1.065623 6.254484,3.456035 l 9.078215,-6.095833 c -3.20182,-5.200988 -8.853804,-8.355277 -14.928922,-8.331609 -4.154133,-0.0406 -8.226699,1.162237 -11.701414,3.456034 -3.504086,2.4802 -5.665817,6.459297 -5.850707,10.769396 -0.200533,7.316091 4.639375,12.80316 13.313814,15.240947 1.412769,0.405843 3.026975,0.812596 4.842619,1.220259 4.035063,0.818965 4.639375,2.235775 4.639375,3.658046 0,2.642528 -2.419955,4.26681 -6.051241,4.064798 -3.977012,0.0701 -7.650753,-2.133468 -9.484704,-5.68908 L 71,55.423262 c 3.242831,6.261552 9.735657,10.123078 16.744566,9.95862 9.682527,0.202012 17.752654,-6.502585 17.953194,-14.834194 -0.0109,-7.523563 -4.63938,-12.80589 -13.517063,-14.836924 z"
           id="Shape"
           inkscape:connector-curvature="0"
           style="stroke-width:3.37085438" />
        <path
           d="M 24.578575,16.258606 C 20.086762,16.23929 15.725029,17.765018 12.22555,20.579674 V 0 H 0.07721021 v 38.074055 c -0.10294695,1.095135 -0.10294695,2.197503 0,3.292637 v 0.616506 c 0.06439647,6.540036 2.64454269,12.804451 7.20547039,17.494382 3.8752334,3.741052 8.8601814,6.124569 14.2062554,6.792619 h 3.089639 c 6.468146,0.06312 12.69399,-2.456595 17.295896,-6.999964 4.73897,-4.824068 7.335923,-11.351489 7.20547,-18.110887 0.03382,-6.741508 -2.549042,-13.233497 -7.20547,-18.110887 -4.698236,-4.368807 -10.878776,-6.795104 -17.295896,-6.789855 z m 0.204686,38.895141 c -0.692545,0.04445 -1.387699,-0.02466 -2.057916,-0.20458 h -0.412136 c -0.231413,0.03119 -0.464245,-0.04638 -0.630652,-0.21011 -4.973931,-1.020271 -8.766864,-5.059269 -9.470837,-10.085256 -0.250767,-1.150516 -0.388798,-2.322713 -0.412136,-3.499983 -0.191858,-3.536618 1.059514,-6.999805 3.468019,-9.597782 2.408505,-2.597978 5.768202,-4.108603 9.310972,-4.186507 9.266152,0 12.560477,7.20178 12.560477,13.789819 0,6.792619 -3.089639,13.789819 -12.353025,13.994399 z"
           id="path10"
           inkscape:connector-curvature="0"
           style="stroke-width:3.37085438" />
        <path
           d="m 157.08463,40.213429 c -0.0645,-6.519906 -2.64871,-12.76504 -7.21682,-17.440535 -3.88134,-3.729538 -8.87415,-6.105719 -14.22864,-6.771713 h -3.09451 c -6.47794,-0.06365 -12.71353,2.447288 -17.32314,6.975663 -4.74644,4.80922 -7.34748,11.31655 -7.21683,18.055143 -0.0339,6.720758 2.55306,13.192766 7.21683,18.055144 4.60961,4.528376 10.8452,7.039318 17.32314,6.975663 4.49889,0.01926 8.8675,-1.501776 12.37249,-4.307768 v 20.516331 h 12.16748 z m -24.95275,14.375764 c -9.28075,0 -12.58027,-7.179614 -12.58027,-13.747376 0,-6.567761 3.29952,-13.747375 12.37249,-13.747375 0.69363,-0.04431 1.38988,0.02458 2.06116,0.203951 h 0.41278 c 0.22631,-0.02816 0.45331,0.04677 0.6178,0.20395 5.86279,1.312684 9.99532,6.537722 9.89854,12.515404 v 0.826826 c 0.26531,3.54125 -0.96078,7.032893 -3.3849,9.639465 -2.42411,2.606573 -5.82815,4.093557 -9.3976,4.105155 z"
           id="path12"
           inkscape:connector-curvature="0"
           style="stroke-width:3.37085438" />
      </g>
    </g>
    <path
       d="m 62.560834,18.188908 c 2.610883,5.677146 3.165401,6.849631 5.16736,12.62289 1.149467,3.627043 -1.152961,8.99911 -10.645671,4.43269 C 50.32198,32.0219 45.430631,29.73869 49.459006,24.366622 c 1.96319,-2.606738 4.185821,-5.034468 6.638259,-7.250823 2.609806,-2.279334 4.225967,-3.715859 6.463569,1.073109 z m -2.25085,36.363121 c 4.971743,-4.889353 11.879554,0.580564 7.054326,7.143749 C 57.642424,74.986162 40.670184,80.286072 25.462309,74.945878 10.254434,69.605683 -0.0026871,55.004203 3.2817964e-4,38.30107 -0.03799886,28.294062 3.28138,19.943745 9.6237542,12.421969 15.728725,5.5906435 24.817274,0.11688564 33.780997,0 c 12.600292,0 18.229725,11.02222 13.791947,17.168641 -4.958719,6.834252 -10.724899,6.278566 -15.012906,3.347665 0,0 -5.899672,-4.184581 -7.641573,-5.580571 -2.682853,-2.090596 -5.632688,-2.090596 -6.703876,1.257069 -1.875392,5.997335 -2.813089,9.765152 -4.288006,15.762487 -0.68616,3.01746 -1.045461,6.105394 -1.071188,9.206078 0.0308,5.707994 2.544967,11.094115 6.837368,14.647728 2.963876,2.783873 6.147409,5.303495 9.516965,7.532246 2.71297,1.850919 5.873074,2.866875 9.11649,2.930901 h 0.266983 c 3.243416,-0.06403 6.403521,-1.079982 9.116491,-2.930901 4.38183,-2.637265 8.591127,-5.573454 12.600292,-8.789314 z M 24.861921,47.640414 c -1.788128,-0.655022 -5.83601,-4.187687 -4.646818,-6.807773 0.477413,-1.440412 3.932145,-1.831517 5.002707,-1.831517 6.316316,-0.130368 6.553576,11.129007 -0.355889,8.63929 z m 11.108998,11.996071 c -0.806771,-0.72327 -2.286395,-2.169809 -3.632102,-3.376234 -0.372665,-0.404507 -0.44438,-0.967919 -0.18295,-1.437296 0.26143,-0.469377 0.806879,-0.756517 1.391473,-0.732512 2.373769,-0.120591 4.75325,-0.120591 7.127019,0 0.55074,0.04052 1.027364,0.359319 1.227547,0.821066 0.200184,0.461748 0.08881,0.985428 -0.286858,1.348742 -1.342441,1.206425 -2.822065,2.652964 -3.494918,3.376234 -0.291948,0.241643 -0.677378,0.371876 -1.074606,0.363098 -0.397227,0.0088 -0.782658,-0.121455 -1.074605,-0.363098 z m 14.16716,-11.996071 c -6.909465,2.489717 -6.672205,-8.769658 -0.355889,-8.63929 1.070562,0 4.406664,0.391105 5.002707,1.831517 1.189192,2.620086 -2.85869,6.152751 -4.646818,6.807773 z"
       id="Combined-Shape"
       inkscape:connector-curvature="0"
       style="fill:#25b135;fill-rule:nonzero;stroke-width:3.37085438" />
  </g>
</svg>
